packages/ui/src/lib/icons/svg/github.svg

<svg width="100%" height="100%" viewBox="0 0 16 16" fill="none" xmlns="http://www.w3.org/2000/svg">
<path d="M5.56982 15V13.7065C5.56982 12.7101 6.06456 11.7787 6.89016 11.2208L7.00733 11.1416C7.08471 11.0893 7.05501 10.9679 6.96238 10.956C5.05288 10.7101 2.75977 9.87745 2.75977 6.67101C2.75977 5.71495 3.1099 4.93275 3.66469 4.32441C3.57716 4.10717 3.27052 3.20889 3.7524 2.00662C5.24094 1.90994 6.17551 2.90472 6.17551 2.90472C7.61166 2.52201 9.14808 2.51896 10.5841 2.90472C10.5841 2.90472 11.3659 1.95095 13.0074 2.00662C13.4892 3.20889 13.1824 4.10717 13.0949 4.32441C13.6643 4.93275 14 5.71495 14 6.67101C14 9.88035 11.72 10.6983 9.79824 10.9549C9.70606 10.9672 9.67681 11.0879 9.75381 11.14L9.87257 11.2205C10.6965 11.7786 11.1899 12.709 11.1899 13.7042V15" stroke="currentColor" stroke-width="1.5"/>
<path d="M5 14C2.59138 14 3.16945 11.752 1.62793 11.752" stroke="currentColor" stroke-width="1.5" stroke-linecap="round"/>
</svg>

<svg xmlns="http://www.w3.org/2000/svg" fill="none" viewBox="0 0 16 16" width="100%" height="100%"><path stroke="currentColor" stroke-width="1.5" d="M5.57 15v-1.293a3 3 0 0 1 1.32-2.486l.117-.08c.078-.052.048-.173-.045-.185-1.91-.246-4.202-1.079-4.202-4.285 0-.956.35-1.738.905-2.347-.088-.217-.394-1.115.087-2.317 1.489-.097 2.424.898 2.424.898a8.6 8.6 0 0 1 4.408 0s.782-.954 2.423-.898c.482 1.202.175 2.1.088 2.317.57.609.905 1.391.905 2.347 0 3.21-2.28 4.027-4.202 4.284-.092.012-.121.133-.044.185l.119.08a3 3 0 0 1 1.317 2.484V15"/><path stroke="currentColor" stroke-linecap="round" stroke-width="1.5" d="M5 14c-2.409 0-1.83-2.248-3.372-2.248"/></svg>
